source/images/icons/appointment-icon.svg

<?xml version="1.0" encoding="utf-8"?>
<!-- Generator: Adobe Illustrator 21.0.2, SVG Export Plug-In . SVG Version: 6.00 Build 0)  -->
<svg version="1.1" id="Layer_1" xmlns="http://www.w3.org/2000/svg" xmlns:xlink="http://www.w3.org/1999/xlink" x="0px" y="0px"
	 width="18px" height="20px" viewBox="0 0 18 20" style="enable-background:new 0 0 18 20;" xml:space="preserve">
<style type="text/css">
	.st0{fill:#BFBFBF;}
</style>
<title>Shape</title>
<desc>Created with Sketch.</desc>
<g id="Customer---Appointments">
	<g id="ProposalAppointmentsDefault_Desktop_1A_OCC" transform="translate(-23.000000, -218.000000)">
		<g id="Aside" transform="translate(-1.000000, 0.000000)">
			<g id="nav" transform="translate(0.000000, 122.000000)">
				<g id="list" transform="translate(1.000000, 0.000000)">
					<g id="item" transform="translate(0.000000, 85.000000)">
						<g id="event-icon" transform="translate(20.000000, 10.000000)">
							<g id="Group">
								<path id="Shape" class="st0" d="M17,12h-5v5h5V12z M16,1v2H8V1H6v2H5C3.9,3,3,3.9,3,5l0,14c0,1.1,0.9,2,2,2h14
									c1.1,0,2-0.9,2-2V5c0-1.1-0.9-2-2-2h-1V1H16z M19,19H5V8h14V19z"/>
							</g>
						</g>
					</g>
				</g>
			</g>
		</g>
	</g>
</g>
</svg>

<?xml version="1.0" encoding="UTF-8"?>
<svg width="18px" height="20px" viewBox="0 0 18 20" version="1.1" xmlns="http://www.w3.org/2000/svg" xmlns:xlink="http://www.w3.org/1999/xlink">
    <!-- Generator: Sketch 41.2 (35397) - http://www.bohemiancoding.com/sketch -->
    <title>Shape</title>
    <desc>Created with Sketch.</desc>
    <defs></defs>
    <g id="Customer---Details" stroke="none" stroke-width="1" fill="none" fill-rule="evenodd">
        <g id="ProposalMainNavOpen_Desktop_1A_OCC" transform="translate(-23.000000, -218.000000)" fill="#BFBFBF">
            <g id="Aside" transform="translate(-1.000000, 0.000000)">
                <g id="nav" transform="translate(0.000000, 122.000000)">
                    <g id="list" transform="translate(1.000000, 0.000000)">
                        <g id="item" transform="translate(0.000000, 85.000000)">
                            <g id="event-icon" transform="translate(20.000000, 10.000000)">
                                <g id="Group">
                                    <path d="M17,12 L12,12 L12,17 L17,17 L17,12 Z M16,1 L16,3 L8,3 L8,1 L6,1 L6,3 L5,3 C3.89,3 3.01,3.9 3.01,5 L3,19 C3,20.1 3.89,21 5,21 L19,21 C20.1,21 21,20.1 21,19 L21,5 C21,3.9 20.1,3 19,3 L18,3 L18,1 L16,1 Z M19,19 L5,19 L5,8 L19,8 L19,19 Z" id="Shape"></path>
                                </g>
                            </g>
                        </g>
                    </g>
                </g>
            </g>
        </g>
    </g>
</svg>
